!!!COM: Morley, Thomas
!!!OTL: O Amica Mea
!!!YOR: from 'Collected Motets' edited by H.K. Andrews & Thurston Dart, pp.66-76
!!!YOO: Stainer & Bell (London)
!!!YOY: 1959
**kern	**kern	**kern	**kern	**kern
*ICvox	*ICvox	*ICvox	*ICvox	*ICvox
! Bassus	! Tenor	! Altus	! Cantus	! Cantus
*M4/4	*M4/4	*M4/4	*M4/4	*M4/4
=1	=1	=1	=1	=1
1r	2r	1r	1r	2.a
.	[2A	.	.	.
.	.	.	.	4b
=2	=2	=2	=2	=2
1r	4A]	2.e	1r	4cc
.	4B	.	.	4dd
.	4c	.	.	{4ee
.	4d	4f#	.	8dd
.	.	.	.	8cc
=3	=3	=3	=3	=3
1r	{4e	4g#	1r	4b
.	4fn	4a	.	2dd
.	[2e	{4b	.	.
.	.	[4a	.	4cc
=4	=4	=4	=4	=4
1r	2e}]	4a]	2r	2b}
.	.	4g#}	.	.
.	[2A	2a	[2ee	2cc#
=5	=5	=5	=5	=5
2.AA	2A]	2.e	4ee]	1r
.	.	.	4dd	.
.	2r	.	4cc	.
4BB	.	4d	[{4b	.
=6	=6	=6	=6	=6
4.C	2r	4c	8b]	1r
.	.	.	8a}	.
.	.	4c	{2a	.
8D	.	.	.	.
2E	[2e	2B	.	.
.	.	.	4g#}	.
=7	=7	=7	=7	=7
2AA	4e]	4c#	2a	2.e
.	4d	2.A	.	.
2r	2c	.	[2ee	.
.	.	.	.	4f#
=8	=8	=8	=8	=8
1r	2B	2E	4ee]	4g#
.	.	.	4dd	4g#
.	{8.A	2r	2cc	[{2a
.	16B	.	.	.
.	8c	.	.	.
.	8d	.	.	.
=9	=9	=9	=9	=9
1r	2e}	1r	4b	4a]
.	.	.	{2b	4gn
.	[2E	.	.	2cc}
.	.	.	[4a	.
=10	=10	=10	=10	=10
2r	2E]	2.e	4a]	2b
.	.	.	8g#	.
.	.	.	8f#}	.
2E	2r	.	4g#	2r
.	.	4d	{4b	.
=11	=11	=11	=11	=11
4E	2r	4c	4gn	2.ee
4F#	.	4c	4a	.
2G#	[2e	2B	2b}	.
.	.	.	.	4dd
=12	=12	=12	=12	=12
2A	4e]	4A	4e	4cc
.	4f#	{2a	4r	4cc
[2B	4d#	.	2r	2b
.	[4e	4g	.	.
=13	=13	=13	=13	=13
2B]	4e]	2f#}	1r	2b
.	4d#	.	.	.
4E	4e	4g#	.	4r
[4E	[4B	4r	.	[4g
=14	=14	=14	=14	=14
4E]	4B]	1r	2.ee	4g]
4D	4B	.	.	4f#
4C	4c	.	.	4e
4BB	4G	.	4dd	4g
=15	=15	=15	=15	=15
{4AA	{4A	4.e	4cc	{4c
4GG#	4B}	.	{4.b	2.e}
.	.	8d	.	.
2AA	4E	4c	.	.
.	.	.	8a}	.
.	{4A	4c	[{4a	.
=16	=16	=16	=16	=16
2E}	4B	2B	4a]	2e
.	4E}	.	4g#}	.
[2AA	2E	2c	4a	4r
.	.	.	[{4a	[4ee
=17	=17	=17	=17	=17
2AA]	4r	4r	8a]	4ee]
.	.	.	8b	.
.	2A	2a	8cc	4a
.	.	.	8dd}	.
2r	.	.	2ee	2cc
.	4A	4e	.	.
=18	=18	=18	=18	=18
1r	2e	2g	1r	4b
.	.	.	.	{2ee
.	2B	4f#	.	.
.	.	[{4b	.	4dd
=19	=19	=19	=19	=19
1r	{4.c	8b]	4r	2cc
.	.	8a	.	.
.	.	2a	2ee	.
.	8d	.	.	.
.	2e}	.	.	2b}
.	.	4g#}	4b	.
=20	=20	=20	=20	=20
4r	4A	4a	4cc	2a
2A	{2c	{4.e	4a	.
.	.	.	2ee	2r
.	.	8f#	.	.
4E	4B}	4g	.	.
=21	=21	=21	=21	=21
4.Fn	1A	4fn	4cc	4r
.	.	4c}	{2ffn	2a
8E	.	.	.	.
{4D	.	4d	.	.
4C#	.	4r	4ee	4e
=22	=22	=22	=22	=22
4D	4r	4.a	4dd	4fn
4AA	{2a	.	4cc}	4e
.	.	8g	.	.
[2BB	.	4f#	[2b	{4d#
.	4G	4e	.	[4e
=23	=23	=23	=23	=23
2BB}]	2f#}	2f#	2b]	4e]
.	.	.	.	4d#}
[2E	2e	2g#	4r	[2e
.	.	.	[4ee	.
=24	=24	=24	=24	=24
2E]	4r	4r	4ee]	2e]
.	2e	2gn	4b	.
2r	.	.	4cc	2r
.	4B	4f#	4dd	.
=25	=25	=25	=25	=25
1r	4.c	4e	{4ee	4r
.	.	4a	4cc}	2ee
.	8d	.	.	.
.	2e	{4a	2b	.
.	.	4g#}	.	4b
=26	=26	=26	=26	=26
4r	2A	2a	4r	4cc
2A	.	.	2a	4a
.	2r	2e	.	{4cc
4E	.	.	4g	4b}
=27	=27	=27	=27	=27
4.Fn	1r	4c	4fn	2a
.	.	2d	4f	.
8G	.	.	.	.
2A	.	.	2e	4r
.	.	4c	.	[4a
=28	=28	=28	=28	=28
1E	4r	2B	2e	4a]
.	2B	.	.	4g
.	.	4E	2r	4.g
.	4E	{4e	.	.
.	.	.	.	{8a
=29	=29	=29	=29	=29
1r	4.G	4.B	4r	4b}
.	.	.	2b	{4g
.	8A	8c#	.	.
.	2B	8d#	.	2f#}
.	.	4e	.	.
.	.	.	4f#	.
.	.	8d#}	.	.
=30	=30	=30	=30	=30
4r	4E	4e	{4.g	2e
2E	{2G	2e	.	.
.	.	.	8a	.
.	.	.	4b}	2r
4BB	4F#}	4dn	[{4b	.
=31	=31	=31	=31	=31
4.C	4E	4c	8b]	4r
.	.	.	8a}	.
.	4r	4c	{2a	2ee
8D	.	.	.	.
2E	2r	{2B	.	.
.	.	.	4g#}	4b
=32	=32	=32	=32	=32
2AA	4r	8A	4a	2cc
.	.	8B	.	.
.	2A	8c	2ee	.
.	.	8d}	.	.
2r	.	4e	.	4b
.	4G#	[{4e	4b	4b
=33	=33	=33	=33	=33
4r	2A	8e]	2cc	{8a
.	.	8d	.	8b
2A	.	8c	.	8cc
.	.	8A}	.	8dd}
.	4E	2B	4b	2ee
4G#	4e	.	4b	.
=34	=34	=34	=34	=34
2A	2e	1r	2a	4r
.	.	.	.	4cc
4D	2d	.	4f#	4a
[4G	.	.	4g	[4b
=35	=35	=35	=35	=35
4G]	1r	1r	{4.d	4b]
{8Fn	.	.	.	8a
8E	.	.	8e	8g
2D}	.	.	2fn}	{4a
.	.	.	.	4b}
=36	=36	=36	=36	=36
4C	2c	2r	2e	2cc
2c	.	.	.	.
.	2A	4r	2r	2r
[4A	.	[4c	.	.
=37	=37	=37	=37	=37
4A]	4.c	4c]	2cc	1r
4.c	.	4A	.	.
.	{8d	.	.	.
.	4e}	4.c	4a	.
8B	.	.	.	.
[4A	4e	.	[4cc	.
.	.	8d	.	.
=38	=38	=38	=38	=38
8A]	{2.c	4e	8cc]	1r
{8G	.	.	8b	.
8Fn	.	{2e	{8a	.
8E	.	.	8g#}	.
2F}	.	.	2a	.
.	8B	4d}	.	.
.	8A}	.	.	.
=39	=39	=39	=39	=39
1E	1B	2e	1g#	4r
.	.	.	.	4b
.	.	4r	.	4b
.	.	4e	.	4b
=40	=40	=40	=40	=40
1r	2r	4e	4r	2g
.	.	4e	4ee	.
.	4r	2c	4ee	2e
.	4e	.	4ee	.
=41	=41	=41	=41	=41
4r	4e	2A	2cc	4ee
4A	4e	.	.	4ee
4A	2c	4r	2a	4ee
4A	.	4a	.	[4cc
=42	=42	=42	=42	=42
2Fn	4A	4a	1r	4cc]
.	4A	4a	.	2a
4D	4.A	4fn	.	.
4D	.	4d	.	4r
.	{8B	.	.	.
=43	=43	=43	=43	=43
4A	8c	4e	4r	1r
.	8d	.	.	.
4c	4e}	2a	4a	.
4.B	4.d	.	4dd	.
.	.	{4g#	4b	.
8B	8d	.	.	.
=44	=44	=44	=44	=44
2A	4e	4a}	4.c	1r
.	4A	4e	.	.
.	.	.	8b	.
2r	4d	4f#	4a	.
.	4B	4d	[{4b	.
=45	=45	=45	=45	=45
2r	4.c	2e	8b]	4r
.	.	.	8a	.
.	.	.	2a}	4a
.	8c	.	.	.
4r	2B	4d	.	4dd
4E	.	[4e	4g#	4b
=46	=46	=46	=46	=46
4A	4r	4e]	4a	4.cc
4E	4G	2e	4r	.
.	.	.	.	8b
4.Fn	4A	.	2r	4a
.	4A	4d	.	[4a
8F	.	.	.	.
=47	=47	=47	=47	=47
2E	4.B	2e	4r	4a]
.	.	.	4b	{8g#
.	8B	.	.	8f#}
4r	2E	2r	4b	2g#
4E	.	.	4b	.
=48	=48	=48	=48	=48
4E	2r	4e	2g	4r
4E	.	4e	.	4ee
2C	4r	4e	2e	4ee
.	4ee	[4c	.	4ee
=49	=49	=49	=49	=49
4AA	4e	4c]	4ee	2cc
4A	4e	4A	4ee	.
4A	2c	4r	4ee	2a
4A	.	4a	[4cc	.
=50	=50	=50	=50	=50
2Fn	2A	4a	4cc]	1r
.	.	4a	2a	.
2D	4r	2fn	.	.
.	4D	.	4r	.
=51	=51	=51	=51	=51
1r	4A	4e	1r	4r
.	4c	4a	.	4a
.	4.B	4a	.	4dd
.	.	4g#	.	4b
.	8B	.	.	.
=52	=52	=52	=52	=52
4r	2A	4a	1r	4.cc
4A	.	4e	.	.
.	.	.	.	8b
4d	2r	4f#	.	4a
4B	.	4d	.	[{4b
=53	=53	=53	=53	=53
4.cn	1r	4.e	4r	8b]
.	.	.	.	8a
.	.	.	4a	2a}
8c	.	8e	.	.
4B	.	4f#	4dd	.
4E	.	4e	4b	4g#
=54	=54	=54	=54	=54
4A	4A	4e	4.cc	4a
4E	2e	4G	.	4r
.	.	.	8b	.
4.Fn	.	4A	4a	2r
.	4d	4A	[4a	.
8F	.	.	.	.
=55	=55	=55	=55	=55
2E	4.e	4.B	4a]	1r
.	.	.	4g#	.
.	8e	8B	.	.
4r	4A	8c	4a	.
.	.	8A	.	.
4AA	{4c	[4a	[4e	.
=56	=56	=56	=56	=56
4.E	4.B}	4a]	4e]	4r
.	.	4g#	4e	4b
8D	8B	.	.	.
4C	4A	4a	4e	4.ee
4BB	4r	4g#	4b	.
.	.	.	.	8dd
=57	=57	=57	=57	=57
*M3/2	*M3/2	*M3/2	*M3/2	*M3/2
4AA	4r	4a	4.ee	{4.cc
{4GG#	4B	4e	.	.
.	.	.	8dd	8b
2.AA}	4.e	4e	{4.cc	4.a
.	.	4A	.	.
.	8d	.	8b	8b
.	4c	4.e	4a}	4cc}
4AA	4A	.	4a	4cc
.	.	8e	.	.
=58	=58	=58	=58	=58
*M4/4	*M4/4	*M4/4	*M4/4	*M4/4
1E;	1B;	1e;	1g#;	1b;
!! "Secunda Pars"
=59	=59	=59	=59	=59
1r	1r	1r	2.b	1r
.	.	.	4g	.
=60	=60	=60	=60	=60
1r	1r	1r	2b	1r
.	.	.	4e	.
.	.	.	[4a	.
=61	=61	=61	=61	=61
1r	1r	1r	4a]	2.ee
.	.	.	4g	.
.	.	.	2f#	.
.	.	.	.	4dd#
=62	=62	=62	=62	=62
1r	1r	4r	4e	2ee
.	.	2e	2g	.
.	.	.	.	2b
.	.	4d#	4f#	.
=63	=63	=63	=63	=63
1r	1r	2e	2g	4r
.	.	.	.	2ee
.	.	2B	4f#	.
.	.	.	[4b	4dd
=64	=64	=64	=64	=64
1r	1r	2r	4b]	2cc
.	.	.	4a	.
.	.	4r	2g	2b
.	.	[4e	.	.
=65	=65	=65	=65	=65
2r	1r	4e]	4f#	4r
.	.	4d	4f#	2b
[2E	.	2c	[2e	.
.	.	.	.	4a
=66	=66	=66	=66	=66
4E]	2r	4B	2e]	{8g#
.	.	.	.	8e
4C	.	4c	.	2a
2E	4r	{2B	2e	.
.	[4e	.	.	4g#}
=67	=67	=67	=67	=67
4AA	4e]	2A}	2r	{4.a
2A	4c	.	.	.
.	.	.	.	8b
.	2e	2E	4r	4cc}
4G	.	.	[4ee	4b
=68	=68	=68	=68	=68
2F#	2A	4r	4ee]	2a
.	.	2a	4dd#	.
2E	4r	.	2ee	2b
.	[4e	4g	.	.
=69	=69	=69	=69	=69
4r	4e]	2f#	4b	1r
4BB	4d	.	4.b	.
{4.C	{2c	4e	.	.
.	.	.	8a	.
.	.	4e	[{4a	.
8D	.	.	.	.
=70	=70	=70	=70	=70
2E}	2B}	2e	4a]	2r
.	.	.	4g#}	.
2AA	4A	4e	4a	4r
.	4c	4e	4a	[4ee
=71	=71	=71	=71	=71
2r	2B	2f#	2b	4ee]
.	.	.	.	4dd#
4r	2E	4g#	2b	2ee
[4E	.	[4gn	.	.
=72	=72	=72	=72	=72
4E]	4r	4g]	2r	1b
4D#	2B	4f#	.	.
2E	.	2g	4r	.
.	4G	.	[4ee	.
=73	=73	=73	=73	=73
2BB	2B	2f#	4ee]	1r
.	.	.	4dd#	.
4r	2E	4r	2ee	.
[4E	.	[4g	.	.
=74	=74	=74	=74	=74
4E]	4r	4g]	2b	2r
4D	2B	4f#	.	.
2C	.	{4.e	2r	4r
.	4A	.	.	[4ee
.	.	8f#	.	.
=75	=75	=75	=75	=75
4BB	4G	8g	2r	4ee]
.	.	8a	.	.
4BB	8F#	4b}	.	4dd
.	8G	.	.	.
2AA	2A	[2e	4r	2cc
.	.	.	[4ee	.
=76	=76	=76	=76	=76
4GG#	1E	4e]	4ee]	4b
4GG#	.	4B	4dd	{2b
{8AA	.	2e	2cc	.
8BB	.	.	.	.
8C	.	.	.	[4a
8D	.	.	.	.
=77	=77	=77	=77	=77
2E	1r	4e	4b	8a]
.	.	.	.	8g
.	.	4e	4b	8g
.	.	.	.	16f#
.	.	.	.	16e}
2BB}	.	{4e	2b	2f#
.	.	4d#}	.	.
=78	=78	=78	=78	=78
2.E	4r	2e	2b	2g#
.	4B	.	.	.
.	4G	2r	2r	4b
4E	4G	.	.	4gn
=79	=79	=79	=79	=79
4C	4.c	4r	1r	4g
4C	.	4e	.	{4.cc
.	8B	.	.	.
{4.Fn	{8A	4c	.	.
.	8B	.	.	8b
.	[4c	4c	.	8a
8E	.	.	.	8g
=80	=80	=80	=80	=80
2D}	4c}]	2fn	2r	4a
.	4B	.	.	4d}
[2C	2c	4e	4r	2g
.	.	4e	4g	.
=81	=81	=81	=81	=81
2C]	2G	4c	4e	4r
.	.	4c	4e	4ee
2r	2r	4.fn	4.a	4cc
.	.	.	.	4cc
.	.	8e	8g	.
=82	=82	=82	=82	=82
1r	1r	4d	8a	4.ffn
.	.	.	8b	.
.	.	4c	{4cc	.
.	.	.	.	8ee
.	.	{4g	4b	4d
.	.	4a	[4cc	4cc
=83	=83	=83	=83	=83
2r	4r	2g}	4cc]	2dd
.	4G	.	4b}	.
2C	4G	4c	4cc	2ee
.	4G	4e	4g	.
=84	=84	=84	=84	=84
4C	2.c	4e	4g	1r
4C	.	4e	4g	.
[2Fn	.	2fn	[2a	.
.	4B	.	.	.
=85	=85	=85	=85	=85
4F]	4A	2c	4a]	2r
4E	4c	.	4g	.
4D	2A	4d	8fn	4r
.	.	.	8g	.
4C	.	4e	[{4a	4a
=86	=86	=86	=86	=86
2BB	2d	{4d	4a]	4b
.	.	4B}	4g#}	4b
4AA	2r	4e	2a	2cc
[4A	.	[4e	.	.
=87	=87	=87	=87	=87
4A]	4r	8e]	4r	4b
.	.	8e	.	.
4G	4E	{2e	4ee	8b
.	.	.	.	8b
2F#	4A	.	4ff#	{4a
.	4A	4d#}	4ff#	4f#}
=88	=88	=88	=88	=88
4E	2B	4e	2gg	1b
4E	.	4e	.	.
4D#	4B	4f#	4ff#	.
4D#	[4B	4f#	[4ff#	.
=89	=89	=89	=89	=89
2E	4B]	{2g	8ff#]	2r
.	.	.	8ee	.
.	4B	.	{2ee	.
2BB	2B	2f#}	.	4r
.	.	.	4dd#}	4b
=90	=90	=90	=90	=90
4r	4E	2e	2ee	4g
4E	4G	.	.	4g
4C	4G	4r	2r	2cc
4C	4A	4e	.	.
=91	=91	=91	=91	=91
{4.G	{4.B	4d	1r	4b
.	.	4d	.	2dd
8F#	8A	.	.	.
2E}	2G}	2g	.	.
.	.	.	.	4cc#
=92	=92	=92	=92	=92
4D	4A	4f#	1r	4d
2A	8A	4.e	.	2cc
.	{8B	.	.	.
.	8c	.	.	.
.	8d	{8f#	.	.
4E	4e}	4g}	.	4b
=93	=93	=93	=93	=93
2Fn	2A	{4c	2r	2a
.	.	4d}	.	.
[2E	[2B	2e	4r	2g#
.	.	.	4b	.
=94	=94	=94	=94	=94
2E]	2B]	4r	4g	2r
.	.	4e	4g	.
2r	2r	4c	4.cc	4r
.	.	4c	.	4ee
.	.	.	8b	.
=95	=95	=95	=95	=95
1r	1r	4.fn	{4.a	4cc
.	.	.	.	4cc
.	.	8e	8g	.
.	.	4d	8a	4.ffn
.	.	.	8b}	.
.	.	4c	4cc	.
.	.	.	.	8ee
=96	=96	=96	=96	=96
1r	2r	{4g	{4b	4dd
.	.	4a	4.a	4cc
.	4r	2e}	.	2b
.	.	.	16g#	.
.	.	.	16f#	.
.	4e	.	4g}	.
=97	=97	=97	=97	=97
4r	4c	1A	2a	2a
4A	4c	.	.	.
4Fn	2fn	.	4r	2r
4F	.	.	4a	.
=98	=98	=98	=98	=98
{4.c	4e	1r	4g	1r
.	2g	.	4g	.
8B	.	.	.	.
8A	.	.	2cc	.
8G	.	.	.	.
4A}	4f#	.	.	.
=99	=99	=99	=99	=99
4G	{2g	4r	1b	1r
8E	.	4e	.	.
8E	.	.	.	.
2B	2f#}	4e	.	.
.	.	4d	.	.
=100	=100	=100	=100	=100
2.E	2e	4.g	1r	4r
.	.	.	.	4b
.	.	8f#	.	.
.	4B	4e	.	4g
4E	4G	4B	.	4g
=101	=101	=101	=101	=101
4C	4G	2e	4r	4.cc
4C	{4.c	.	4ee	.
.	.	.	.	8b
{4.Fn	.	4fn	4cc	8a
.	8B	.	.	8b
.	8A	4c	4cc	[{4cc
8E	8G	.	.	.
=102	=102	=102	=102	=102
2D}	2Fn}	2d	2ffn	4cc]
.	.	.	.	4b}
4C	2c	4G	4ee	4cc
[{4AA	.	8A	[4ee	[4cc
.	.	{8B	.	.
=103	=103	=103	=103	=103
8AA]	4r	8c	8ee]	8cc]
8BB	.	8d	8dd	8b
8C	4.E	2e	4cc	4a
8D}	.	.	.	.
2E	.	.	4b	4g#
.	{8F#	.	.	.
.	4G}	4B}	[4b	4e
=104	=104	=104	=104	=104
4.C	{2c	1e	8b]	4e
.	.	.	8a	.
.	.	.	{2a	{4.ee
{8D	.	.	.	.
2E}	2B}	.	.	.
.	.	.	.	8dd
.	.	.	4g#}	4b}
=105	=105	=105	=105	=105
1AA;	1A;	1E;	1a;	1cc#;
==	==	==	==	==
*-	*-	*-	*-	*-
!!!ENC: Mark Laxton
!!!EDD: Mark Laxton
!!!YEC: Mark Laxton, 1987
!!!EMD: Reference records added by D. Huron, 2001
!!!EEV: 1.1
